X: 1
T: Inverness Fiddler, The
M: 4/4
L: 1/8
R: strathspey
K: Bmin
|: B2 (B>c) (d>e) (f>g)|(af) (ed) (c>B) A>c|B2 (B>c) (d>e) (f>g)|(af) (e>c) B2 f2 :|
|: B2 (B>c) d>e f>d|(c>B)(A>B) (c>d) (e>c)|B2 (B>c) (d>e) (f>g)|(af) (e>c) B2 f2 :|
